optimized/24/outline/birthday.svg

<svg viewBox="0 0 24 24" xmlns="http://www.w3.org/2000/svg" fill="currentColor" data-slot="icon">
  <g clip-path="url(#clip0_2208_12335)">
    <path d="M16.3947 5.49475L16.4817 5.49025C16.6655 5.49009 16.843 5.55745 16.9804 5.67954C17.1179 5.80163 17.2057 5.96993 17.2272 6.1525L17.2317 6.24025V9.48276L18.7459 9.48351C19.5416 9.48351 20.3046 9.79958 20.8672 10.3622C21.4298 10.9248 21.7459 11.6879 21.7459 12.4835V20C22.1359 20 22.4532 20.2895 22.4959 20.663L22.5019 20.75C22.5021 20.934 22.4346 21.1115 22.3124 21.249C22.1901 21.3864 22.0216 21.4742 21.8389 21.4955L21.7512 21.5H2.24817C2.04926 21.5 1.85849 21.421 1.71784 21.2803C1.57719 21.1397 1.49817 20.9489 1.49817 20.75C1.49817 20.5511 1.57719 20.3603 1.71784 20.2197C1.85849 20.079 2.04926 20 2.24817 20H2.24517L2.24592 12.4835C2.24592 11.6879 2.56199 10.9248 3.1246 10.3622C3.68721 9.79958 4.45027 9.48351 5.24592 9.48351H6.73092L6.73167 6.24025C6.73153 6.05631 6.799 5.87873 6.92124 5.74128C7.04348 5.60382 7.21197 5.51609 7.39467 5.49475L7.48167 5.49025C7.6655 5.49009 7.84298 5.55745 7.98042 5.67954C8.11785 5.80163 8.20566 5.96993 8.22717 6.1525L8.23167 6.24025V9.48276H11.2317V6.241C11.2315 6.05706 11.299 5.87948 11.4212 5.74203C11.5435 5.60457 11.712 5.51684 11.8947 5.4955L11.9817 5.491C12.1655 5.49084 12.343 5.5582 12.4804 5.68029C12.6179 5.80237 12.7057 5.97068 12.7272 6.15325L12.7317 6.241V9.48351H15.7317V6.241C15.7315 6.05706 15.799 5.87948 15.9212 5.74203C16.0435 5.60457 16.212 5.51609 16.3947 5.49475ZM15.9934 16.406C14.6622 17.1215 13.3219 17.4838 11.9779 17.4838C10.6377 17.4838 9.31092 17.1238 8.00667 16.4105C7.17717 17.1155 6.31692 17.4838 5.42967 17.4838C4.85217 17.4838 4.29042 17.3278 3.74517 17.0248V19.9835H20.2452V17.0315C19.7074 17.33 19.1524 17.4838 18.5802 17.4838C17.6937 17.4838 16.8304 17.114 15.9934 16.406ZM18.7459 10.9835H16.5784C16.5147 10.9917 16.4502 10.9917 16.3864 10.9835H12.0777C12.0142 10.9916 11.9499 10.9916 11.8864 10.9835H7.57767C7.51417 10.9916 7.44991 10.9916 7.38642 10.9835H5.24592C4.84809 10.9835 4.46656 11.1415 4.18526 11.4228C3.90395 11.7042 3.74592 12.0857 3.74592 12.4835V15.17C4.34142 15.725 4.90092 15.9838 5.43042 15.9838C5.98692 15.9838 6.58692 15.6995 7.23492 15.0898L7.37442 14.954L7.79442 14.5333L8.29917 14.8453C9.53517 15.6088 10.7584 15.9838 11.9787 15.9838C13.1202 15.9838 14.2774 15.656 15.4572 14.9893L15.7107 14.8415L16.2117 14.5385L16.6272 14.951C17.3367 15.6568 17.9869 15.9838 18.5809 15.9838C19.1074 15.9838 19.6602 15.7265 20.2459 15.173V12.4835C20.2459 12.0857 20.0879 11.7042 19.8066 11.4228C19.5253 11.1415 19.1437 10.9835 18.7459 10.9835ZM11.9959 2.5C12.1948 2.5 12.3856 2.57902 12.5262 2.71967C12.6669 2.86032 12.7459 3.05109 12.7459 3.25C12.7459 3.44891 12.6669 3.63968 12.5262 3.78033C12.3856 3.92098 12.1948 4 11.9959 4C11.797 4 11.6062 3.92098 11.4656 3.78033C11.3249 3.63968 11.2459 3.44891 11.2459 3.25C11.2459 3.05109 11.3249 2.86032 11.4656 2.71967C11.6062 2.57902 11.797 2.5 11.9959 2.5ZM16.4959 2.5C16.6948 2.5 16.8856 2.57902 17.0262 2.71967C17.1669 2.86032 17.2459 3.05109 17.2459 3.25C17.2459 3.44891 17.1669 3.63968 17.0262 3.78033C16.8856 3.92098 16.6948 4 16.4959 4C16.297 4 16.1062 3.92098 15.9656 3.78033C15.8249 3.63968 15.7459 3.44891 15.7459 3.25C15.7459 3.05109 15.8249 2.86032 15.9656 2.71967C16.1062 2.57902 16.297 2.5 16.4959 2.5ZM7.49592 2.5C7.69483 2.5 7.8856 2.57902 8.02625 2.71967C8.1669 2.86032 8.24592 3.05109 8.24592 3.25C8.24592 3.44891 8.1669 3.63968 8.02625 3.78033C7.8856 3.92098 7.69483 4 7.49592 4C7.29701 4 7.10624 3.92098 6.96559 3.78033C6.82494 3.63968 6.74592 3.44891 6.74592 3.25C6.74592 3.05109 6.82494 2.86032 6.96559 2.71967C7.10624 2.57902 7.29701 2.5 7.49592 2.5Z"/>
  </g>
  <defs>
    <clipPath id="clip0_2208_12335">
      <rect width="24" height="24"/>
    </clipPath>
  </defs>
</svg>

<svg xmlns="http://www.w3.org/2000/svg" viewBox="0 0 24 24" fill="currentColor" data-slot="icon">
  <g clip-path="url(#a)">
    <path d="m16.395 5.495.087-.005a.75.75 0 0 1 .745.662l.005.088v3.243h1.514a3 3 0 0 1 3 3V20c.39 0 .707.29.75.663l.006.087a.75.75 0 0 1-.663.745l-.088.005H2.248a.75.75 0 1 1 0-1.5h-.003v-7.517a3 3 0 0 1 3-3h1.486V6.24a.75.75 0 0 1 .664-.745l.087-.005a.75.75 0 0 1 .745.662l.005.088v3.243h3V6.24a.75.75 0 0 1 .663-.745l.087-.005a.75.75 0 0 1 .745.662l.005.088v3.243h3V6.24a.75.75 0 0 1 .663-.746Zm-.402 10.911c-1.33.716-2.671 1.078-4.015 1.078-1.34 0-2.667-.36-3.971-1.074-.83.706-1.69 1.074-2.577 1.074-.578 0-1.14-.156-1.685-.46v2.96h16.5V17.03a3.395 3.395 0 0 1-1.665.453c-.886 0-1.75-.37-2.587-1.078Zm2.753-5.422h-2.168a.752.752 0 0 1-.192 0h-4.308a.756.756 0 0 1-.192 0H7.578a.756.756 0 0 1-.192 0h-2.14a1.5 1.5 0 0 0-1.5 1.5v2.686c.595.555 1.155.814 1.684.814.557 0 1.157-.284 1.805-.894l.14-.136.42-.42.504.311c1.236.764 2.46 1.139 3.68 1.139 1.141 0 2.298-.328 3.478-.995l.254-.148.5-.302.416.412c.71.706 1.36 1.033 1.954 1.033.526 0 1.08-.258 1.665-.811v-2.69a1.5 1.5 0 0 0-1.5-1.5ZM11.996 2.5a.75.75 0 1 1 0 1.5.75.75 0 0 1 0-1.5Zm4.5 0a.75.75 0 1 1 0 1.5.75.75 0 0 1 0-1.5Zm-9 0a.75.75 0 1 1 0 1.5.75.75 0 0 1 0-1.5Z"/>
  </g>
  <defs>
    <clipPath id="a">
      <rect width="24" height="24"/>
    </clipPath>
  </defs>
</svg>
